X:1
T:Old Country Church
C:DAD/J. M. Vaughan
L:1/8
Q:240
M:4/4
K:D
|"@VERSES" A,[D,A,D]
w:v1.~There's a
w:v2.~As a
w:v3.~How I
w:v4.~Oft my
|"D" [D,2A,2F2] [D,A,F][D,A,E] [D,2A,2F2] [D,A,D][D,A,F]
w:place dear to me where I'm
w:small coun-try boy how my
w:wish that to-day, all the
w:thoughts make me weep, for the
|"G" [G,B,E][G,2B,2D2][G,B,] "D" [D,2A,2] [D,A,][D,A,]
w:long-ing to be, With my
w:heart beat with joy, When I
w:peo-ple would pray, As we
w:man-y who sleep, in their
| [D,2A,2D2] [D,A,D][G,A,E] [D,2A,2F2] [G,A,E][D,A,D]
w:friends at the old coun-try
w:knelt in the old coun-try
w:prayed in the old coun-try
w:graves near the old coun-try
|"A" [G,6C6E6] [D,A,][D,A,D]
w:church; There with
w:church; And the
w:church; If they'd
w:church; And some-
|"D" [D,2A,2F2] [D,A,F][D,A,E] [D,2A,2F2] [D,A,D][D,A,F]
w:mo-ther we went, and our
w:Sav-ior a-bove by His
w:on-ly con-fess, Je-sus
w:time I may rest, with the
|"G" [G,B,E][G,2B,2D2][G,B,] "D" [D,2A,2] [D,A,][D,A,]
w:Sun-days were spent, With the
w:won-der-ful love, Saved my
w:sure-lyi would bless, As He
w:friends I love best, In a
| [D,2A,2D2] [D,A,D][G,B,E] "A" [D,2A,2F2] [D,A,D][G,B,E]
w:friends at the old coun-try
w:soul in the old coun-try
w:did in the old coun-try
w:grave near the old coun-try
|"D" [D,6A,6D6] "@CHORUS"A,[D,A,D]
w:church.  Pre-cious
w:church.
w:church.
w:church.
|"D" [D,4-A,4-F4-] [D,A,F][D,B,G] [D,A,F][G,B,E]
w:years_ of mem-o
| [D,4-A,4-D4-] [D,2A,2D2] [F,A,D][D,A,F]
w:ry,_ Oh what
|"A" [G,4-C4-E4-] [G,CE][G,A,E] [F,A,D][E,A,E]
w:joy_ they bring to
|"D" [D,4-A,4-F4-] [D,2A,2F2] [D,A,][D,A,D]
w:me._ How I
|"D7" [D,4-D4-F4-] [D,DF][F,A,D] [D,A,E][D,A,F]
w:long_ once more to
|"G" [D,4-B,4-G4-] [D,2B,2G2] [B,D][B,E]
w:be,_ With my
|"A" [D,2A,2F2] [A,F][A,E] [D,2A,2F2] [D,A,D][G,B,E]
w:friends at the old Coun-try
|"D" [D,8A,8D8] ||
w:church.
